icons/type-icons/icons/application-x-kexiproject-shortcut.svg

<?xml version="1.0" encoding="UTF-8"?><svg width="22" height="22" version="1.1" xmlns="http://www.w3.org/2000/svg">
 <g id="layer1" transform="translate(-326 -534.36)">
  <g id="layer1-23" fill="#8e44ad">
   <path id="path4146" transform="translate(326 534.36)" d="m11 3a8 3 0 0 0-8 3v5a8 3 0 0 0 7 2.9727v2.0273h-3v-1h-4v4h4v-1h8v1h4v-4h-4v1h-3v-2.0273a8 3 0 0 0 7-2.9727v-1h-1v1a7 2 0 0 1-7 2 7 2 0 0 1-7-2v-3.5488a8 3 0 0 0 7 1.5488 8 3 0 0 0 3-0.22266v-0.97266a7 2 0 0 1-3 0.19531 7 2 0 0 1-7-2 7 2 0 0 1 7-2 7 2 0 0 1 3 0.19531v-0.97461a8 3 0 0 0-3-0.2207zm-7 13h2v2h-2v-2zm12 0h2v2h-2v-2z" stroke-width="2"/>
   <path id="path4147" d="m341 537.36v3h1v-1h0.5c0.831 0 1.5 0.669 1.5 1.5s-0.669 1.5-1.5 1.5h-1.5v1h1.5c1.385 0 2.5-1.115 2.5-2.5s-1.115-2.5-2.5-2.5h1.5v-1h-3z"/>
  </g>
 </g>
</svg>

<?xml version="1.0" encoding="UTF-8" standalone="no"?>

<!-- Created with Inkscape (http://www.inkscape.org/) -->
<svg width="22" version="1.1" xmlns="http://www.w3.org/2000/svg" height="22" xmlns:inkscape="http://www.inkscape.org/namespaces/inkscape">
 <defs id="defs3871"/>
 <metadata id="metadata3874"/>
 <g inkscape:label="Capa 1" inkscape:groupmode="layer" id="layer1" transform="matrix(1 0 0 1 -326 -534.3622)">
  <g inkscape:label="Capa 1" id="layer1-23">
   <path style="fill:#8e44ad;stroke-width:2" id="path4146" d="M 11 3 A 8 3.0000005 0 0 0 3 6 L 3 10 L 3 11 A 8 3.0000005 0 0 0 10 13.972656 L 10 16 L 7 16 L 7 15 L 3 15 L 3 19 L 7 19 L 7 18 L 15 18 L 15 19 L 19 19 L 19 15 L 15 15 L 15 16 L 12 16 L 12 13.972656 A 8 3.0000005 0 0 0 19 11 L 19 10 L 18 10 L 18 11 A 7 2 0 0 1 11 13 A 7 2 0 0 1 4 11 L 4 10 L 4 7.4511719 A 8 3.0000005 0 0 0 11 9 A 8 3.0000005 0 0 0 14 8.7773438 L 14 7.8046875 A 7 2 0 0 1 11 8 A 7 2 0 0 1 4 6 A 7 2 0 0 1 11 4 A 7 2 0 0 1 14 4.1953125 L 14 3.2207031 A 8 3.0000005 0 0 0 11 3 z M 4 16 L 6 16 L 6 18 L 4 18 L 4 16 z M 16 16 L 18 16 L 18 18 L 16 18 L 16 16 z " transform="matrix(1 0 0 1 326 534.3622)"/>
   <path inkscape:connector-curvature="0" style="fill:#8e44ad" id="path4147" d="m 341,537.3622 0,1 0,1 0,1 1,0 0,-1 0.5,0 c 0.831,0 1.5,0.669 1.5,1.5 0,0.831 -0.669,1.5 -1.5,1.5 l -1.5,0 0,1 1.5,0 c 1.385,0 2.5,-1.115 2.5,-2.5 0,-1.385 -1.115,-2.5 -2.5,-2.5 l 1.5,0 0,-1 -3,0 z"/>
  </g>
 </g>
</svg>
